X:1014
T:Baille de Panderu (CT 155)
R:Panderu
C:Tradicional
S:Música Tradicional Asturiana, (C) Tello & Tito. Asturies, 2001.
S:http://pagina.de/MusTradAst <telloytito@asturies.org>
N:Canción de baile de pandero, transcrita en Llanes.
O:Llanes
A:Asturies
Z:Cancioneru de Torner 155
M:6/8
L:1/8
Q:3/8=88
W:Viva la punta d'arriba,
W:la d'abaxu y la del mediu,
W:y pa que vivan todos,
W:viva quien toca'l panderu.
K:G
G2B|A3/2G/2F G2B|A3 B2c|c3/2B/2A B2A|
G3 A2G|B3/2B/2A G2B|F3 B2B|c3/2B/2A B2A|G2z||


